X:1
T:Dame Venus hence - Bateson
T:James Gibb editions
T:#
%%score { 1 | 2 } 3 4 { ( 5 6 7 ) | 8 }
L:1/8
Q:1/4=120
M:4/4
K:F
V:1 treble nm="Soprano I" snm="S"
V:2 treble 
V:3 treble nm="Alto" snm="A"
V:4 treble-8 nm="Tenor" snm="T"
V:5 treble nm="Practice"
V:6 treble 
V:7 treble 
V:8 bass 
V:1
"^Dame Venus hence" z2!mf! D2 G2 B2 | A3 A B2 d2 | d4 z2 G2 | %3
w: Dame Ve- nus|hence to Pa- phos|go, for|
 B2 A2 B2"^Thomas Bateson\n(1575-1630)" cc |[M:4/4] d4 z2 G2 | B2 A2 BGBc | d2 d2 d2 c2 | %7
w: Mars is gone to the|field. He|can- not tend sweet Love's em-|brace in hand with|
 d3 c B (A G2) | A2 G2 G2 ^F2 | G2!p! D2 G2 B2 | A3 A B2 d2 | d4 z2 G2 | %12
w: spear and shield, in *|hand with spear and|shield. Dame Ve- nus|hence to Pa- phos|go, for|
[Q:1/4=120][Q:1/4=120][Q:1/4=120][Q:1/4=120] B2 A2 B2 cc | d4 z2 G2 | B2 A2 BGBc | d2 d2 d2 c2 | %16
w: Mars is gone to the|field. He|can- not tend sweet Love's em-|brace in hand with|
 d3 c B (A G2) | A2 G2 G2 ^F2 | G4 z2!f! B2 | B3 B B2 B2 | (BAGA BAB)c | B4 z2 (cB | AGFE F) G A2 | %23
w: spear and shield, in *|hand with spear and|shield. The|roar- ing can- non|thun\- * * * * * * der-|eth, thun\- *|* * * * * der\- *|
 B4 z2"^dim." d2 | d2 d2 d2 ^c2 | d2!p! d2 B2 c2 | d2 A2 G3 G | A4 z4 | z2 d2 cBAG | F2 f2 _edcB | %30
w: eth, such|ter- rors as not|fit a ten- der|Imp of your re-|gard,|which dal- ly'ng still doth|sit, which dal- ly'ng still doth|
 A3 B c4 | z2 d2 cBAG | ^F2 G2 A4 | z2!mf! B2 AGFE | D2 d2 cBAG | ^F2 B2 AG=FE | %36
w: sit, doth sit,|which dal- ly'ng still doth|sit, doth sit,|which dal- ly'ng still doth|sit, which dal- ly'ng still doth|sit, which dal- ly'ng still doth|
[Q:1/4=117][Q:1/4=117] D2[Q:1/4=110][Q:1/4=110] (d3[Q:1/4=105][Q:1/4=105] c[Q:1/4=102][Q:1/4=102] A2) | %37
w: sit, doth * *|
[Q:1/4=100][Q:1/4=100] =B8 |] %38
w: sit.|
V:2
 z8 | z2!mf! D2 G2 B2 | A3 A B2 c2 | d4 z2 G2 |[M:4/4] B2 A2 B2 cc | d4 z2 G2 | B2 A2 B2 G2 | %7
w: |Dame Ve- nus|hence to Pa- phos|go, for|Mars is gone to the|field. He|can- not tend sweet|
 B2 A2 G2 d2 | d2 c2 d3 c | =B4 z4 | z2!p! D2 G2 B2 | A3 A B2 c2 | d4 z2 G2 | B2 A2 B2 cc | %14
w: Love's em- brace in|hand with spear and|shield.|Dame Ve- nus|hence to Pa- phos|go, for|Mars is gone to the|
 d4 z2 G2 | B2 A2 B2 G2 | B2 A2 G2 d2 | d2 c2 d3 c | =B4 z2!f! d2 | d3 d d2 d2 | _e4 e4 | d4 cBAG | %22
w: field. He|can- not tend sweet|Love's em- brace in|hand with spear and|shield. The|roar- ing can- non|thun- der-|eth, thun\- * * *|
 FEFG A (B c2) | d4 z2"^dim." B2 | B2 G2 A3 G | ^F4 z4 | z2!p! d2 B2 c2 | d2 A2 G2 B2 | A4 z4 | %29
w: * * * * * der\- *|eth, such|ter- rors as not|fit|a ten- der|Imp of your re-|gard,|
 z2 d2 cBAG | F2"^cresc." f2 _edcB | A2 (GF) E2 z2 | z2 d2 cBAG | ^F2 G2 A4 | z2!mf! B2 AG=FE | %35
w: which dal- ly'ng still doth|sit, which dal- ly'ng still doth|sit, doth * sit,|which dal- ly'ng still doth|sit, doth sit,|which dal- ly'ng still doth|
 D2 d2 cBAG | ^F2 (G3 A F2) | G8 |] %38
w: sit, which dal- ly'ng still doth|sit, doth * *|sit.|
V:3
!mf! D4 B,2 G,2 | D2 F2 D3 G | ^F4 z2 G2 | G2 ^F2 G2 _EE |[M:4/4] D4 z2 G2 | G2 ^F2 G2 _E2 | %6
w: Dame Ve- nus|hence to Pa- phos|go, for|Mars is gone to the|field. He|can- not tend sweet|
 D2 D2 G,2 G2 | G2 ^F2 G3 (=F/_E/) | D2 G,2 B,2 A,2 | G,2!p! D2 B,2 G,2 | D2 F2 D3 G | ^F4 z2 G2 | %12
w: Love's em- brace in|hand with spear and *|shield, with spear and|shield. Dame Ve- nus|hence to Pa- phos|go, for|
 G2 ^F2 G2 _EE | D4 z2 G2 | G2 ^F2 G2 _E2 | D2 D2 G,2 G2 | G2 ^F2 G3 (=F/_E/) | D2 G,2 B,2 A,2 | %18
w: Mars is gone to the|field. He|can- not tend sweet|Love's em- brace in|hand with spear and *|shield, with spear and|
 G,4 z2!f! G2 | F3 F F2 F2 | G2 G2 G4 | (FEDE F) (G F2) | C6 F_E | D4 z2"^dim." D2 | D2 D2 F2 E2 | %25
w: shield. The|roar- ing can- non|thun- der- eth,|thun\- * * * * der\- *|eth, thun- der-|eth, such|ter- rors as not|
 D2!p! D2 G2 _E2 | D2 D2 G,2 G2 | ^F4 z2 G2 | G2 =F2 _E3 E | D4 z4 | z8 | z2"^cresc." B2 AGF_E | %32
w: fit a ten- der|Imp of your re-|gard, which|dal- ly'ng still doth|sit,||which dal- ly'ng still doth|
 D2 B,2 C4 | z2!mf! D2 CB,A,G, | ^F,2 G,2 A,2 B,2 | A,2 G,2 A,2 D2 | A,2 B,2 A,2 D2 | D8 |] %38
w: sit, doth sit,|which dal- ly'ng still doth|sit, which dal- ly'ng|still doth sit, which|dal- ly'ng still doth|sit.|
V:4
 z8 | z2!mf! d2 B2 G2 | d3 c B2 _e2 | d4 z2 g2 |[M:4/4][K:treble-8] g2 ^f2 g2 _ee | d4 z2 g2 | %6
w: |Dame Ve- nus|hence to Pa- phos|go, for|Mars is gone to the|field. He|
 g2 ^f2 g2 _e2 | d2 d2 G2 G2 | F2 _E2 D2 D2 | G8 | z2!p! d2 B2 G2 | d3 c B2 _e2 | d4 z2 g2 | %13
w: can- not tend sweet|Love's em- brace in|hand with spear and|shield.|Dame Ve- nus|hence to Pa- phos|go, for|
 g2 ^f2 g2 _ee | d4 z2 g2 | g2 ^f2 g2 _e2 | d2 d2 G2 G2 | F2 _E2 D2 D2 | G4 z2!f! G2 | B3 B B2 B2 | %20
w: Mars is gone to the|field. He|can- not tend sweet|Love's em- brace in|hand with spear and|shield. The|roar- ing can- non|
 (GF_EF GFG)A | B4 F4- | F4 F4 | B4 z2"^dim." B2 | G3 B A2 A2 | D4 z4 | z2!p! d2 g2 _e2 | %27
w: thun\- * * * * * * der-|eth, thun\-|* der-|eth, such|ter- rors as not|fit|a ten- der|
 d3 c B (A G2) | d4 z2 c2 | d2 B2 c2 c2 | d2"^cresc." d2 cBAG | F2 G2 A4 | z2!mf! B2 AGFE | D8- | %34
w: Imp of your re\- *|gard, which|dal- ly'ng still doth|sit, which dal- ly'ng still doth|sit, doth sit,|which dal- ly'ng still doth|sit,|
 D8 | D8- | D8 | G8 |] %38
w: |doth||sit.|
V:5
!mf! z2 D2 G2 B2 | A3 A B2 d2 | d4 x2 G2 | B2 A2 B2 c2 |[M:4/4] d4 x2 G2 | B2 A2 BG Bc | %6
 d2 d2 d2 c2 | d3 c BA G2 | A2 G2 G2 ^F2 | G2!p! D2 G2 _B2 | A3 A B2 d2 | d4 x2 G2 | B2 A2 B2 c2 | %13
 d4 x2 G2 | B2 A2 BG Bc | d2 d2 d2 c2 | d3 c B A G2 | A2 G2 G2 ^F2 | G4 z2!f! _B2 | B3 B B2 B2 | %20
 BAGA BABc | B4 x2 cB | AGFE F G A2 | B4 z2 d2 | d2 d2 d2 ^c2 | d2!p!!p! d2 B2 c2 | d2 A2 G3 G | %27
 A4 x4 | x2 d2 cBAG | F2 f2 _e d c B | A3 B c4 | x2 d2 cBAG | ^F2 G2 A4 | x2!mf! B2 AG=FE | %34
 D2!mf! d2 cBAG | ^F2 B2 A G =F E | D2 d3 c A2 | =B8 |] %38
V:6
 x8 | z2 D2 G2 B2 | A3 A B2 c2 | d4 x2 G2 |[M:4/4] B2 A2 B2 c2 | d4 x2 G2 | B2 A2 B2 G2 | %7
 B2 A2 G2 d2 | d2 c2 d3 c | =B4 x4 | x2 D2 G2 B2 | A3 A B2 c2 | d4 x2 G2 | B2 A2 B2 c2 | d4 x2 G2 | %15
 B2 A2 B2 G2 | B2 A2 G2 d2 | d2 c2 d3 c | =B4 z2 d2 | d3 d d2 d2 | _e4 e4 | d4 cBAG | FEFG A B c2 | %23
 d4 z2 B2 | B2 G2 A3 G | ^F4 x4 | x2 d2 B2 c2 | d2 A2 G2 B2 | A4 x4 | x2 d2 cBAG | F2 f2 _edcB | %31
 A2 GF E2 x2 | x2 d2 c B A G | ^F2 G2 A4 | x2 B2 AGFE | D2 d2 cBAG | ^F2 G3 A F2 | G8 |] %38
V:7
[I:staff +1] D4 C2 G,2 | D2 F2[I:staff -1] D3 G | ^F4 x2 G2 | G2 ^F2 G2 _E2 |[M:4/4] D4 x2 G2 | %5
 G2 ^F2 G2 _E2 | D2 D2[I:staff +1] G,2[I:staff -1] G2 | G2 ^F2 G3 =F/_E/ | %8
[I:staff +1] D2 G,2 B,2 A,2 | G,2 D2 B,2 G,2 |[I:staff -1] D2 F2 D3 G | ^F4 x2 G2 | G2 ^F2 G2 _E2 | %13
 D4 x2 G2 | G2 ^F2 G2 _E2 | D2 D2[I:staff +1] G,2[I:staff -1] G2 | G2 ^F2 G3 =F/_E/ | %17
 D2[I:staff +1] G,2 B,2 A,2 | G,4[I:staff -1] z2 G2 | F3 F F2 F2 | G2 G2 G4 | FEDE F G F2 | %22
 C6 F_E | D4 z2 D2 | D2 D2 F2 E2 | D2 D2 G2 _E2 | D2 D2[I:staff +1] G,2[I:staff -1] G2 | %27
 ^F4 x2 G2 | G2 F2 _E3 E | D4 x4 | x8 | x2 B2 AGF_E | D2[I:staff +1] B,2[I:staff -1] C4 | %33
 x2 D2 CB,A,G, |[I:staff +1] ^F,2 G,2 A,2 B,2 | A,2 G,2 A,2 D2 | A,2 B,2 A,2[I:staff -1] D2 | D8 |] %38
V:8
 x8 | x2 D2 B,2 G,2 | D3 C B,2 _E2 | D4 z4 |[M:4/4][I:staff -1] G2 ^F2 G2 _E2 | %5
 D4[I:staff +1] z2[I:staff -1] G2 | G2 ^F2 G2[I:staff +1] _E2 | D2 D2 G,2 G,2 | F,2 _E,2 D,2 D,2 | %9
 G,8 | z2 D2 B,2 G,2 | D3 C B,2 _E2 |[I:staff -1] D4[I:staff +1] x2[I:staff -1] G2 | %13
 G2 ^F2 G2 _E2 | D4[I:staff +1] x2[I:staff -1] G2 | G2 ^F2 G2[I:staff +1] _E2 | D2 D2 G,2 G,2 | %17
 F,2 _E,2 D,2 D,2 | G,4 z2 G,2 | B,3 B, B,2 B,2 | G,F,_E,F, G,F,G,A, | B,4 F,4- | F,4 F,4 | %23
 B,4 z2"^dim." B,2 | G,3 B, A,2 A,2 | D,4 z4 | z2 D2[I:staff -1] G2[I:staff +1] _E2 | %27
 D3 C B, A, G,2 | D4 z2 C2 | D2 B,2 C2 C2 | D2 D2 CB,A,G, | F,2 G,2 A,4 | z2!mf! B,2 A,G,F,E, | %33
 D,8- | D,8 | D,8- | D,8 | G,8 |] %38

